frontend/src/assets/images/big-logo-background.svg

<svg width="393" height="450" viewBox="0 0 393 450" fill="none" xmlns="http://www.w3.org/2000/svg">
<g style="mix-blend-mode:screen">
<path d="M408.623 515.266C405.922 524.539 403.196 528.448 400.396 528.751C391.303 529.879 381.937 492.514 373.636 480.571C349.379 445.764 304.475 429.064 274.959 419.704C252.411 412.525 230.03 393.452 210.729 366.129C207.111 361.012 201.908 358.287 196.581 357.927H196.407C191.08 358.287 185.877 361.006 182.259 366.129C162.957 393.452 140.577 412.519 118.054 419.704C88.537 429.058 43.6149 445.764 19.3512 480.571C11.0507 492.514 1.68468 529.879 -7.40876 528.751C-10.2087 528.448 -12.9342 524.539 -15.635 515.266C-23.0436 489.702 -21.4082 458.692 -17.1464 432.056C1.56079 315.687 95.5801 259.968 142.887 201.716C154.161 187.902 161.619 177.972 166.203 165.918C166.302 165.726 168.21 160.715 168.953 159.532C179.186 143.135 187.586 141.233 196.407 140.217H196.581C205.401 141.233 213.826 143.135 224.034 159.532C224.778 160.715 226.686 165.72 226.785 165.918C231.369 177.972 238.827 187.902 250.101 201.716C297.408 259.968 391.421 315.687 410.134 432.056C414.421 458.692 416.056 489.702 408.623 515.266Z" fill="#153B61"/>
<path d="M437.092 389.841C436.696 390.944 435.568 390.237 434.862 388.59C422.709 356.75 408.839 326.763 390.145 299.247C363.775 259.609 326.131 232.335 287.527 208.907C284.851 207.346 285.384 205.445 288.345 206.157C366.637 224.096 429.894 300.901 437.191 389.531L437.092 389.835V389.841Z" fill="#153B61"/>
<path d="M456.599 325.753C456.326 326.521 455.539 326.026 455.044 324.88C446.582 302.716 436.931 281.841 423.917 262.694C405.563 235.104 379.36 216.118 352.482 199.808C350.618 198.724 350.99 197.398 353.052 197.894C407.551 210.382 451.587 263.846 456.667 325.543L456.599 325.753Z" fill="#153B61"/>
<path d="M-44.0922 384.452C-43.6957 385.554 -42.5683 384.848 -41.8622 383.2C-29.7087 351.361 -15.8393 321.374 2.85552 293.858C29.2253 254.22 66.8689 226.946 105.473 203.518C108.149 201.957 107.616 200.056 104.655 200.768C26.3634 218.707 -36.8942 295.512 -44.1913 384.142L-44.0922 384.446V384.452Z" fill="#153B61"/>
<path d="M-63.5985 320.364C-63.3259 321.132 -62.5392 320.637 -62.0437 319.491C-53.5821 297.327 -43.9311 276.452 -30.9166 257.305C-12.5625 229.715 13.64 210.729 40.5177 194.419C42.3823 193.335 42.0106 192.009 39.9478 192.505C-14.5509 204.993 -58.5872 258.457 -63.6666 320.153L-63.5985 320.364Z" fill="#153B61"/>
</g>
</svg>

<svg xmlns="http://www.w3.org/2000/svg" width="393" height="450" fill="none"><g fill="#153B61" style="mix-blend-mode:screen"><path d="M408.623 515.266c-2.701 9.273-5.427 13.182-8.227 13.485-9.093 1.128-18.459-36.237-26.76-48.18-24.257-34.807-69.161-51.507-98.677-60.867-22.548-7.179-44.929-26.252-64.23-53.575-3.618-5.117-8.821-7.842-14.148-8.202h-.174c-5.327.36-10.53 3.079-14.148 8.202-19.302 27.323-41.682 46.39-64.205 53.575-29.517 9.354-74.44 26.06-98.703 60.867-8.3 11.943-17.666 49.308-26.76 48.18-2.8-.303-5.525-4.212-8.226-13.485-7.409-25.564-5.773-56.574-1.511-83.21C1.56 315.687 95.58 259.968 142.887 201.716c11.274-13.814 18.732-23.744 23.316-35.798.099-.192 2.007-5.203 2.75-6.386 10.233-16.397 18.633-18.299 27.454-19.315h.174c8.82 1.016 17.245 2.918 27.453 19.315.744 1.183 2.652 6.188 2.751 6.386 4.584 12.054 12.042 21.984 23.316 35.798 47.307 58.252 141.32 113.971 160.033 230.34 4.287 26.636 5.922 57.646-1.511 83.21M437.092 389.841c-.396 1.103-1.524.396-2.23-1.251-12.153-31.84-26.023-61.827-44.717-89.343-26.37-39.638-64.014-66.912-102.618-90.34-2.676-1.561-2.143-3.462.818-2.75 78.292 17.939 141.549 94.744 148.846 183.374l-.099.304zM456.599 325.753c-.273.768-1.06.273-1.555-.873-8.462-22.164-18.113-43.039-31.127-62.186-18.354-27.59-44.557-46.576-71.435-62.886-1.864-1.084-1.492-2.41.57-1.914 54.499 12.488 98.535 65.952 103.615 127.649zM-44.092 384.452c.396 1.102 1.524.396 2.23-1.252 12.153-31.839 26.023-61.826 44.718-89.342 26.37-39.638 64.013-66.912 102.617-90.34 2.676-1.561 2.143-3.462-.818-2.75-78.292 17.939-141.55 94.744-148.846 183.374l.099.304zM-63.598 320.364c.272.768 1.059.273 1.554-.873 8.462-22.164 18.113-43.039 31.127-62.186 18.355-27.59 44.557-46.576 71.435-62.886 1.864-1.084 1.493-2.41-.57-1.914-54.499 12.488-98.535 65.952-103.615 127.648z"/></g></svg>
